icons/label-outline.svg

<svg xmlns="http://www.w3.org/2000/svg" width="24" height="24" viewBox="0 0 24 24">
  <path d="M14.1715729,4 L5,4 C3.34314575,4 2,5.34314575 2,7 L2,17 C2,18.6568542 3.34314575,20 5,20 L14.1715729,20 C14.9672223,20 15.7302841,19.6839295 16.2928932,19.1213203 L21.2928932,14.1213203 C22.4644661,12.9497475 22.4644661,11.0502525 21.2928932,9.87867966 L16.2928932,4.87867966 C15.7302841,4.31607052 14.9672223,4 14.1715729,4 Z M5,6 L14.1715729,6 C14.4367894,6 14.6911433,6.10535684 14.8786797,6.29289322 L19.8786797,11.2928932 C20.2692039,11.6834175 20.2692039,12.3165825 19.8786797,12.7071068 L14.8786797,17.7071068 C14.6911433,17.8946432 14.4367894,18 14.1715729,18 L5,18 C4.44771525,18 4,17.5522847 4,17 L4,7 C4,6.44771525 4.44771525,6 5,6 Z"/>
</svg>

<svg xmlns="http://www.w3.org/2000/svg" viewBox="0 0 24 24">
  <path d="M14.17 4H5a3 3 0 0 0-3 3v10a3 3 0 0 0 3 3h9.17a3 3 0 0 0 2.12-.88l5-5a3 3 0 0 0 0-4.24l-5-5A3 3 0 0 0 14.17 4zM5 6h9.17a1 1 0 0 1 .7.3l5 5a1 1 0 0 1 0 1.4l-5 5a1 1 0 0 1-.7.3H5a1 1 0 0 1-1-1V7a1 1 0 0 1 1-1z"/>
</svg>
